X:2
T:Arkansas Traveler
L:1/4
M:4/4
Q:180
K:D
C:Traditional
R:Breakdown
A, |: "D"D/F/E/D/ "G"B,B, | "D"A,A,D>D | "A"EE"D"FF | "A"E/F/E/D/ B,A, |
| "D"D/F/E/D/ "G"B,B, | "D"A,A,D(3A/B/c/ | d/c/d/A/ "G"B/d/A/G/ | "A"F/D/E "D"D A,:|
 (f/g/) |: "D"a/g/f/a/ "A" g/f/e/g/ |"D"f/e/d/f/ "A"e/d/ A | "D"dd"A"ee | "D"f/e/f/d/"A"ef/g/ |
|"D"a/g/f/a/ "A"g/f/e/g/ | "D"f/e/d/f/ "A"e/d/B/A/ | "D"d/c/d/A/ "G"B/d/A/G/ | "A"F/D/E/F/ "D"D (f/g/):|

